X:2422
T:Ha Toll Air A Bhata
O:england
S:Alexander Mackay, A collection of Reels...
B:NLS Glen.344
N:Mc16 in Gore's Scottish Fiddle Music Index
N:Gore guesses 1802, a note (by Murdoch Henderson?)
N:on the titlepage says there's an 1832 watermark.
M:C|
L:1/8
K:G
g|d2dB d2de|dedB gage|   deBg dGdB|A/A/A AB e2e:|\
f|g2dB d2de|
gagf e2de|[1 g2de dGdB|A/A/A AB e2e:|\
[2 gbeg deBg|A/A/A AB e2e|]


